X:1
T:Exurgat Deus
T:Ex[s]urgat Deus
T:Giovanni Girolamo Kapsperger
T:Source : Libro primo di mottetti passeggiati a una voce---Roma---1612. Racolta del Sig.Francesco de Nobile Editor : André Vierendeels (26/10/15).
T:Notes : Original clefs : C1, F4 Editorial accidentals above the staff Note values have been halved in 3-beat measures m37  in BC : "la"  notated as "si" in original Ms  
C:Giovanni Girolamo Kapsperger
%%score 1 2
L:1/8
Q:1/4=80
M:4/4
K:C
V:1 treble nm="Soprano" snm="S"
V:2 bass nm="BC" snm="BC"
V:1
 z2 E2 G2 A2 | c>B A/G/F/E/ F/G/E/F/ G/C/D/E/ | F/G/A/B/ c/B/c/B/ c/B/B/B/ B/A/B/c/ | G4 z ccB | %4
w: Ex- sur- gat|De- * * * * * * * * * * * * *||us et dis- si-|
 B4- BAAA | A4 A3 D/E/ | ^F/4G/4A/4B/4A/4B/4c/4d/4 B/4c/4A/B/G/ A4 | G4 c/G/A/B/ c/B/c/A/ | B6 B2 | %9
w: pen- * tur i- ni-|mi- ci e- *||ius, et _ _ _ _ _ _ _|fu- gi-|
 B4 A>A G/4G/4G/4G/4F/E/ | F/E/E/E/ D/^C/D/E/ ^F/G/A/B/ c/d/D | E4 E2 A/G/A/B/ | c3 A A4 | %13
w: ant qui o- * * * * * *|de- * * * * * * * * * * * * * runt|e- am a _ _ _|fa- ci- e|
 A/4_B/4c/4A/4B/4c/4d/4c/4 B/A/G/F/ G4 | F8 | G6 ^F2 | G6 FE | D4 D2 D/E/^F/G/ | D2 E/D/E/C/ D3 C | %19
w: e- * * * * * * * * * * * *|ius,|sic- ut|de- fi- cit|fu- mus de _ _ _|_ _ _ _ _ fi- ci-|
 C4 c4- | c2 B4 d2- | d2 A4 c2- | c2 B4 A2 | A/G/A/_B/ A4 GF | E8 |[M:3/4] E4 c2 | B3 A G2 | %27
w: ant sic-|* ut flu-|* it ce-|* ra a|fa- * * * * ci- e|i-|gnis sic|pe- re- ant|
 A/G/A/B/ A2 G2 |[M:4/4] F4 E4- | E2 D2 D3 D | D2 E/F/G/C/ D4 | C3 G A2 B2 | c3 A B4 | A6 c2- | %34
w: pec- * * * * ca-|to- res|_ a fa- ci-|e De- * * * *|i, et iu- sti|e- pu- len-|tur et|
 c d/c/ _B/A/G/F/ G4 | F4 A2 A/_B/4c/4A | _B/A/G/F/4E/4 D2 E4 | D6 A2 | DEFG ABcd | %39
w: _ ex- * * * * * *|tent in con- * * spe-|ctu _ _ _ _ _ De-|i et|de- * * * lec- * * *|
 c2 d/c/d/c/ d/c/c/c/4B/4 c2 | B3 c C/D/E/F/ G/A/B/c/ | G/A/B/c/ G/A/B/c/4B/4 A3 G | %42
w: ten- * * * * * * * * * *|tur in lae- * * * * * * *|* * * * * * * * * ti- ti-|
 G4 D2 E/D/E/4C/4D/4E/4 | F/E/F/D/ E/F/G/F/ G2 A/G/F/4E/4D/4C/4 | D2 D2 G3 A/B/ | %45
w: a, et de- * * * * *|lec- * * * * * * * ten- * * * * * *|tur in lae- * *|
 c/B/A/B/ c/B/A/G/ F/E/D/E/ F/D/E/F/ | G/E/F/D/ E/C/D/E/ F/G/A/B/ c/C/D/E/ | %47
w: ||
 F/E/F/E/ F/E/F/F/ F/F/E/D/ C2 | D4 D4 | !fermata!C8 |] %50
w: |ti- ti-|a.|
V:2
 C,8 | C,8- | C,8 | C,8 | E,4 C,4 | D,8 | B,,4 D,4 | G,,4 F,4 | E,8 | E,4 ^C,4 | D,8 | A,,8 | %12
 F,,8 | F,4 C,4 | F,,8 | C4 A,4 | E,4 F,4 | G,8 | F,2 E,2 G,4 | C,4 A,,4 | E,4 B,,4 | D,4 A,,4 | %22
"^b" E,4 F,4 | F,4 G,4 | A,8 |[M:3/4] A,4 A,,2 | E,4 E,2 | F,4 E,2 |[M:4/4] D,4 C,4 | G,4 F,4- | %30
 F,2 E,2 G,4 | C,6 B,,2 | A,,4 E,4 | A,,4 F,,4- | F,,4 C,4 | F,,4 F,4 | G,2 F,2 A,4 | D,8- | D,8 | %39
 A,,8 | D,2 C,2 C,4- | C,4 D,4 | G,,6 C,2 | F,4 E,4 | G,4 E,2 F,2 | F,8 | E,8 | D,8 | G,,8 | %49
 !fermata!C,8 |] %50

